X:1
T:Nun Lasst Uns Gott dem Herren, 77.77
T:Nikolaus Selnecker, 1587
T:Nun Lasst Uns Gott dem Herren, 77.77
T:Public Domain
C:Nikolaus Selnecker, 1587
Z:Public Domain
%%score ( 1 2 ) ( 3 4 )
L:1/8
M:3/4
K:A
V:1 treble 
V:2 treble 
V:3 bass 
V:4 bass 
V:1
 [EA] | [EA]2 [EG](F G)[EA] | [EB]3 [CA]2 [CA] | [EA]2 [FB](G F)[B,E] | (C2 ^D) [EG]2 [^EG] | %5
 [FA]2 [FA] [DB]2 [Cc] | (^D>C D) [EB]2 [Gc] | [Ad]2 [Ac] [FB]2 A | (E2 D) [CA]2 |] %9
V:2
 x | x3 D2 x | x6 | x3 E2 x | A3 x3 | x6 | B3 x3 | x5 A | B3 x2 |] %9
V:3
 [A,,C] | [A,,C]2 [C,C] [D,A,]2 [C,A,] | (A,2 G,) [A,,A,]2 [A,,A,] | %3
 [C,A,]2 [^D,F,] [E,B,]2 [G,B,] | [F,A,]3 [G,B,]2 [C,C] | [F,C]2 [D,F,](F, G,)[A,,A,] | %6
 [B,,A,]3 [E,G,]2 [D,C] | [F,D]2 [A,E](D,>E,)[F,C] | [E,G,]3 [A,,A,]2 |] %9
V:4
 x | x6 | E,3 x3 | x6 | x6 | x3 B,,2 x | x6 | x3 D2 x | x5 |] %9

